img/insta-icon.svg

<svg xmlns="http://www.w3.org/2000/svg" viewBox="53.12 53.19 21.77 21.33">
    <path d="M74.88 65.34c-.01-2.39-.34-4.79-.3-7.13-.02-.79-.09-1.54-.15-2.28-.11-.3-.11-.7-.15-1.06-.26-.17-.22-.64-.46-.84-.42-.23-1.2-.11-1.74-.23-.66-.03-1.25-.12-1.9-.15-1.94-.1-3.97-.08-6-.08-2 0-3.95-.14-5.7-.38h-2.2c-.1 0-.11.1-.23.08-.6.03-1.08.19-1.59.3-.21.12-.42.24-.68.3-.14.19-.51.14-.61.38-.19.21.18.45 0 .61v.91c.17.13.03.58.08.83v.99c-.02 1.28.13 2.4.08 3.72.47 2.76.37 6.54.08 9.41.16.58.36 1.11.46 1.75.26.48.33 1.13.68 1.52.5.21 1.23.19 1.9.23.38.1.67.29 1.14.3 2.84-.21 5.5-.15 8.43-.23 2.7.24 5.8.19 8.28-.23.2-.13.13-.53.23-.76-.06-.38.21-.45.23-.76.1-2.38.13-4.78.12-7.2zM61.9 59.11c.76-.15 1.48-.34 2.43-.3.71.08 1.29.28 1.9.46.12.18-.24.55.15.68v.08c.06.02.15 0 .15.08.45.04.79.17 1.06.38.45.05.54.48 1.14.38-.09.21-.08.52-.08.83.32 1.18.47 2.81.3 4.25-.16.16-.21.44-.3.68-.31.32-.48.79-.84 1.06-.09.24-.25.41-.45.53-.12.21-.21.45-.46.53-.3.16-.58.01-.83-.08-.45.16-.9.31-1.21.61-.82-.1-1.65-.17-2.43-.3-.24-.14-.49-.27-.83-.3-.23-.2-.5-.36-.84-.46-.1-.13-.34-.12-.46-.23-.2-.03-.23-.23-.46-.23-.12-.41-.44-.62-.53-1.06-.23-.33-.31-.8-.46-1.21-.04-1.43.09-2.69.38-3.8.35-.59.78-1.09 1.14-1.67.25.02.37-.09.38-.3.31.05.43-.07.68-.08.27-.07.28-.39.47-.53zm-1.67-2.73c-.12-.26-.07-.69-.08-1.06-.01-.28.28-.28.3-.53 0-.07-.09-.06-.15-.08.13-.15.7-.1.83 0 .13.54-.35.46-.53.68.01.17.32.03.46.08.03.85-.06 1.5 0 2.2h-.46c-.01.23.23.23.46.23-.06.29.09.36.08.61-.23.15-.72.04-1.06.08-.11-.6.23-1.38.15-2.21zm-.68-1.6c.09-.01.13.02.15.08.18.25.01.68-.08.91-.17-.18-.03-.68-.07-.99zm.15 1.83c-.13-.07-.17-.24-.15-.46.13.07.16.24.15.46zm0 1.36c-.06.14-.08-.04-.08-.15.06-.14.08.05.08.15zm-.15.23c.17-.02.08.22.23.23-.01.19-.28.18-.38.08.03-.12.11-.2.15-.31zm-2.36-1.21c.01-.11.01-.21-.08-.23-.07-.73.13-1.41 0-1.97.25-.15.77-.04 1.14-.08v1.14c-.09.06-.2.1-.38.08-.05.28.32.13.38.3.01.85-.06 1.78.15 2.43-.57-.06-.91.11-1.44.08.1-.61-.02-1.43.53-1.59-.01-.15-.25-.06-.3-.16zm-.53 0c-.2.02-.22-.53-.08-.61.33 0 .25.5.08.61zm-.15.98c.08-.31.03-.3.08-.68.22.01.25.77-.08.68zm.23-2.05c-.26.05-.27-.27-.15-.38.26-.05.27.27.15.38zm0-1.14c.03.16-.05.2-.08.3-.18.02-.08-.22-.23-.23.03-.09.19-.05.31-.07zm-.23 3.72c.15-.03.11.34-.08.23.04-.06.08-.12.08-.23zm-.68-3.72c.03.26-.44.32-.38 0h.38zm-.99.08c-.03.22-.33.18-.38.38-.21-.17.08-.47.38-.38zm-.46.76c.23-.2.45-.41.68-.61-.02-.12.07-.13.08-.23h.23c.1.38-.26.3-.3.53.02.12-.07.13-.08.23.02.34.12.59.08.99-.27.01-.28.28-.61.23.02-.43-.13-.68-.08-1.14zm.08 3.26v-1.59c.2-.18.4-.36.61-.53.29.49.18 1.39.46 1.9-.28.15-.76.11-1.07.22zm18.22 11.09c-.11.95-.16 1.97-.38 2.81-2.89.12-6.02 0-8.88.15-.2.04-.27-.03-.23-.23-.25 0-.26.25-.53.23.2-.34.44-.9.15-1.29-.8.01-.8.82-1.14 1.29-.69-.05-1.14.13-1.82.08.18-.71.75-1.02.91-1.75-.39-.55-.99.14-1.21.46-.2.48-.56.81-.76 1.29h-.99c.24-.47.49-.93.76-1.37.17-.51.63-.74.68-1.37-.16-.28-.42-.03-.68 0-.12.18-.27.33-.38.53-.23.38-.5.71-.68 1.14-.18.21-.33 0-.53.23-.39.27-.58.74-.99.99-.17-.06.04-.36.15-.38.05-.18-.1-.55.08-.61.06-.37.21-.65.38-.91.12-.74.52-1.2.68-1.9-.56.1-.67.64-.99.99-.21.45-.54.77-.68 1.29-.17-.13-.03-.58-.08-.84.12-.59.3-1.12.38-1.75.13-.22.17-.54.23-.83.17-.21.05-.61-.08-.76-.23.03-.37.13-.46.3-.19-.03-.19.51-.3.3-.04-2.59-.45-4.81-.46-7.44.03-.33-.18-.42-.23-.68 1.63.03 3.12.09 4.78.23-.09.14-.2.26-.3.38-.14.07-.23.17-.38.3-.6 1.65-.98 3.98-.61 6.15.23.58.59 1.03.99 1.44.91.49 1.63 1.15 2.51 1.67 1.7.36 3.84.37 5.54 0 .24-.12.48-.23.68-.38 1.36-1.24 2.75-2.46 2.96-4.86V63.5c-.2-1.6-.69-2.91-1.75-3.64.33-.22 1.1.04 1.67.08.22.01.45.01.68 0 .41-.02.93-.06 1.44 0 .14.19.11.54.23.76-.06 1.68-.19 3.3-.15 5.09.1.45.13.99.23 1.44-.07.98-.22 1.9-.44 2.74zm.38-11.16c-.64-.12-1.23-.28-1.9-.38.07-.33.8-.01.99-.23.38-.22.29-.92.3-1.52.03-.35.11-.64.08-1.06-.4-.95-1.78-.42-2.89-.45-.22.72-.47 1.8-.3 2.66.17.49 1.02.29 1.52.46-.14.33-.69.06-.99.08-.3-.08-.71-.05-.99-.15-2.29.08-4.28 0-6.53.15.12-1.25.06-2.46-.08-3.64h3.11c-.34.36-.91.51-1.29.83-.44.24-.86.51-1.14.91.25.13.54-.25.76-.38.36-.07.48-.38.84-.46.42-.44 1.1-.63 1.67-.91.38-.02.7.01.99.08 1.28.01 2.46.13 3.8.08.61.15 1.45.07 1.97.3.11.3.23.58.3.91.02.98-.14 1.81-.22 2.72zm-5.85-3.72c.11-.05 0-.09 0 0zm0 0c-.53.15-1.02.35-1.37.68.49-.2 1.07-.31 1.37-.68zm1.07.61c.11-.05-.01-.1 0 0zm-1.75.91c.73-.16 1.18-.59 1.75-.91-.44.02-.59.32-.99.38-.22.21-.6.25-.76.53zm-.68-.84c-.11.05 0 .09 0 0zm-.69.61c.11-.05 0-.09 0 0zm-.07.07c.06.01.07-.03.08-.08-.07-.01-.08.04-.08.08zm-.08.08c.06.01.07-.03.08-.08-.07-.01-.07.03-.08.08zm-.83.61c.35-.13.61-.35.83-.61-.35.13-.61.35-.83.61zm2.27.99c.53-.05.75-.42 1.21-.53.28-.3.78-.38.99-.76-.56.02-.77.4-1.22.53-.27.29-.74.41-.98.76zm-2.27-.99c-.32-.08-.02.23 0 0zm-.54.38c.02.02.12-.04.08-.08-.02-.02-.11.04-.08.08zm2.81.61c-.11.04.01.09 0 0zm-1.14 1.82c-.22-.23-.68-.23-.99-.38-.7-.04-1.22.09-1.75.23-.3.15-.61.3-.91.45-.27.17-.44.42-.76.53-.21.22-.35.51-.68.61 0 .22-.17.28-.3.38-.09.12-.09.31-.23.38-.01.12.04.29-.08.3.11 1.51.29 2.95.68 4.18.29.62.98.85 1.44 1.29.59.3 1.33.44 2.13.53.28-.05.55-.11.91-.08 1.21-.21 2.1-.74 2.81-1.44.1-.28.25-.51.45-.68-.25-.67.29-1.1.46-1.6 0-1.34-.2-2.48-.61-3.42-.26-.58-.92-.75-1.37-1.14-.06-.02-.15 0-.15-.08-.25-.12-.71-.22-1.05-.06zm-3.41 4.32c-.11-.06-.11-.24-.15-.38.25-.07.12.24.15.38zm.07.31c.04-.12.08-.01.08.08-.04.11-.08 0-.08-.08zm.46-2.05c.01-.09.08-.04.08 0-.02.08-.08.04-.08 0zm1.67-2.13c-.2.26.04.58.08.84-.31-.04-.58-.89-.08-.84zm.38 3.95c-.04-.04.05-.1.08-.08.04.04-.06.1-.08.08zm.76 2.88c.03-.11.07.01.15 0-.02.1-.15.08-.15 0zm2.2-2.58c-.23-.06-.14.21-.38.15.07-.16.12-.34.23-.46.13.03.17.14.15.31zm-1.14-3.79c.21.12.44.22.61.38.08.22.24.36.38.53.06.78.18 1.49.15 2.35-.26.1-.44.27-.68.38-.78-.01-1.36-.21-1.9-.46-.17-.26-.36-.5-.53-.76v-1.06c.17-.18.32-.39.46-.61.23-.13.51-.2.45-.61-.04-.06-.08-.12-.08-.23.16.04.25.16.38.23.33.03.41-.19.76-.14z"
          fill="#231f20"/>
</svg>

<?xml version="1.0" encoding="utf-8"?>
<!-- Generator: Adobe Illustrator 24.1.1, SVG Export Plug-In . SVG Version: 6.00 Build 0)  -->
<svg version="1.1" id="Layer_1" xmlns="http://www.w3.org/2000/svg" xmlns:xlink="http://www.w3.org/1999/xlink" x="0px" y="0px"
	 viewBox="53.12 53.19 21.77 21.33" style="enable-background:new 53.12 53.19 21.77 21.33;" xml:space="preserve">
<style type="text/css">
	.st0{fill:#231F20;}
</style>
<g id="instagram">
	<g>
		<path class="st0" d="M74.88,65.34c-0.01-2.39-0.34-4.79-0.3-7.13c-0.02-0.79-0.09-1.54-0.15-2.28c-0.11-0.3-0.11-0.7-0.15-1.06
			c-0.26-0.17-0.22-0.64-0.46-0.84c-0.42-0.23-1.2-0.11-1.74-0.23c-0.66-0.03-1.25-0.12-1.9-0.15c-1.94-0.1-3.97-0.08-6-0.08
			c-2,0-3.95-0.14-5.7-0.38h-2.2c-0.1,0-0.11,0.1-0.23,0.08c-0.6,0.03-1.08,0.19-1.59,0.3c-0.21,0.12-0.42,0.24-0.68,0.3
			c-0.14,0.19-0.51,0.14-0.61,0.38c-0.19,0.21,0.18,0.45,0,0.61v0.91c0.17,0.13,0.03,0.58,0.08,0.83v0.99
			c-0.02,1.28,0.13,2.4,0.08,3.72c0.47,2.76,0.37,6.54,0.08,9.41c0.16,0.58,0.36,1.11,0.46,1.75c0.26,0.48,0.33,1.13,0.68,1.52
			c0.5,0.21,1.23,0.19,1.9,0.23c0.38,0.1,0.67,0.29,1.14,0.3c2.84-0.21,5.5-0.15,8.43-0.23c2.7,0.24,5.8,0.19,8.28-0.23
			c0.2-0.13,0.13-0.53,0.23-0.76c-0.06-0.38,0.21-0.45,0.23-0.76C74.86,70.16,74.89,67.76,74.88,65.34z M61.9,59.11
			c0.76-0.15,1.48-0.34,2.43-0.3c0.71,0.08,1.29,0.28,1.9,0.46c0.12,0.18-0.24,0.55,0.15,0.68v0.08c0.06,0.02,0.15,0,0.15,0.08
			c0.45,0.04,0.79,0.17,1.06,0.38c0.45,0.05,0.54,0.48,1.14,0.38c-0.09,0.21-0.08,0.52-0.08,0.83c0.32,1.18,0.47,2.81,0.3,4.25
			c-0.16,0.16-0.21,0.44-0.3,0.68c-0.31,0.32-0.48,0.79-0.84,1.06c-0.09,0.24-0.25,0.41-0.45,0.53c-0.12,0.21-0.21,0.45-0.46,0.53
			c-0.3,0.16-0.58,0.01-0.83-0.08c-0.45,0.16-0.9,0.31-1.21,0.61c-0.82-0.1-1.65-0.17-2.43-0.3c-0.24-0.14-0.49-0.27-0.83-0.3
			c-0.23-0.2-0.5-0.36-0.84-0.46c-0.1-0.13-0.34-0.12-0.46-0.23c-0.2-0.03-0.23-0.23-0.46-0.23c-0.12-0.41-0.44-0.62-0.53-1.06
			c-0.23-0.33-0.31-0.8-0.46-1.21c-0.04-1.43,0.09-2.69,0.38-3.8c0.35-0.59,0.78-1.09,1.14-1.67c0.25,0.02,0.37-0.09,0.38-0.3
			c0.31,0.05,0.43-0.07,0.68-0.08C61.7,59.57,61.71,59.25,61.9,59.11z M60.23,56.38c-0.12-0.26-0.07-0.69-0.08-1.06
			c-0.01-0.28,0.28-0.28,0.3-0.53c0-0.07-0.09-0.06-0.15-0.08c0.13-0.15,0.7-0.1,0.83,0c0.13,0.54-0.35,0.46-0.53,0.68
			c0.01,0.17,0.32,0.03,0.46,0.08c0.03,0.85-0.06,1.5,0,2.2h-0.46c-0.01,0.23,0.23,0.23,0.46,0.23c-0.06,0.29,0.09,0.36,0.08,0.61
			c-0.23,0.15-0.72,0.04-1.06,0.08C59.97,57.99,60.31,57.21,60.23,56.38z M59.55,54.78c0.09-0.01,0.13,0.02,0.15,0.08
			c0.18,0.25,0.01,0.68-0.08,0.91C59.45,55.59,59.59,55.09,59.55,54.78z M59.7,56.61c-0.13-0.07-0.17-0.24-0.15-0.46
			C59.68,56.22,59.71,56.39,59.7,56.61z M59.7,57.97c-0.06,0.14-0.08-0.04-0.08-0.15C59.68,57.68,59.7,57.87,59.7,57.97z
			 M59.55,58.2c0.17-0.02,0.08,0.22,0.23,0.23c-0.01,0.19-0.28,0.18-0.38,0.08C59.43,58.39,59.51,58.31,59.55,58.2z M57.19,56.99
			c0.01-0.11,0.01-0.21-0.08-0.23c-0.07-0.73,0.13-1.41,0-1.97c0.25-0.15,0.77-0.04,1.14-0.08v1.14c-0.09,0.06-0.2,0.1-0.38,0.08
			c-0.05,0.28,0.32,0.13,0.38,0.3c0.01,0.85-0.06,1.78,0.15,2.43c-0.57-0.06-0.91,0.11-1.44,0.08c0.1-0.61-0.02-1.43,0.53-1.59
			C57.48,57,57.24,57.09,57.19,56.99z M56.66,56.99c-0.2,0.02-0.22-0.53-0.08-0.61C56.91,56.38,56.83,56.88,56.66,56.99z
			 M56.51,57.97c0.08-0.31,0.03-0.3,0.08-0.68C56.81,57.3,56.84,58.06,56.51,57.97z M56.74,55.92c-0.26,0.05-0.27-0.27-0.15-0.38
			C56.85,55.49,56.86,55.81,56.74,55.92z M56.74,54.78c0.03,0.16-0.05,0.2-0.08,0.3c-0.18,0.02-0.08-0.22-0.23-0.23
			C56.46,54.76,56.62,54.8,56.74,54.78z M56.51,58.5c0.15-0.03,0.11,0.34-0.08,0.23C56.47,58.67,56.51,58.61,56.51,58.5z
			 M55.83,54.78c0.03,0.26-0.44,0.32-0.38,0H55.83z M54.84,54.86c-0.03,0.22-0.33,0.18-0.38,0.38
			C54.25,55.07,54.54,54.77,54.84,54.86z M54.38,55.62c0.23-0.2,0.45-0.41,0.68-0.61c-0.02-0.12,0.07-0.13,0.08-0.23h0.23
			c0.1,0.38-0.26,0.3-0.3,0.53c0.02,0.12-0.07,0.13-0.08,0.23c0.02,0.34,0.12,0.59,0.08,0.99c-0.27,0.01-0.28,0.28-0.61,0.23
			C54.48,56.33,54.33,56.08,54.38,55.62z M54.46,58.88v-1.59c0.2-0.18,0.4-0.36,0.61-0.53c0.29,0.49,0.18,1.39,0.46,1.9
			C55.25,58.81,54.77,58.77,54.46,58.88z M72.68,69.97c-0.11,0.95-0.16,1.97-0.38,2.81c-2.89,0.12-6.02,0-8.88,0.15
			c-0.2,0.04-0.27-0.03-0.23-0.23c-0.25,0-0.26,0.25-0.53,0.23c0.2-0.34,0.44-0.9,0.15-1.29c-0.8,0.01-0.8,0.82-1.14,1.29
			c-0.69-0.05-1.14,0.13-1.82,0.08c0.18-0.71,0.75-1.02,0.91-1.75c-0.39-0.55-0.99,0.14-1.21,0.46c-0.2,0.48-0.56,0.81-0.76,1.29
			H57.8c0.24-0.47,0.49-0.93,0.76-1.37c0.17-0.51,0.63-0.74,0.68-1.37c-0.16-0.28-0.42-0.03-0.68,0c-0.12,0.18-0.27,0.33-0.38,0.53
			c-0.23,0.38-0.5,0.71-0.68,1.14c-0.18,0.21-0.33,0-0.53,0.23c-0.39,0.27-0.58,0.74-0.99,0.99c-0.17-0.06,0.04-0.36,0.15-0.38
			c0.05-0.18-0.1-0.55,0.08-0.61c0.06-0.37,0.21-0.65,0.38-0.91c0.12-0.74,0.52-1.2,0.68-1.9c-0.56,0.1-0.67,0.64-0.99,0.99
			c-0.21,0.45-0.54,0.77-0.68,1.29c-0.17-0.13-0.03-0.58-0.08-0.84c0.12-0.59,0.3-1.12,0.38-1.75c0.13-0.22,0.17-0.54,0.23-0.83
			c0.17-0.21,0.05-0.61-0.08-0.76c-0.23,0.03-0.37,0.13-0.46,0.3c-0.19-0.03-0.19,0.51-0.3,0.3c-0.04-2.59-0.45-4.81-0.46-7.44
			c0.03-0.33-0.18-0.42-0.23-0.68c1.63,0.03,3.12,0.09,4.78,0.23c-0.09,0.14-0.2,0.26-0.3,0.38c-0.14,0.07-0.23,0.17-0.38,0.3
			c-0.6,1.65-0.98,3.98-0.61,6.15c0.23,0.58,0.59,1.03,0.99,1.44c0.91,0.49,1.63,1.15,2.51,1.67c1.7,0.36,3.84,0.37,5.54,0
			c0.24-0.12,0.48-0.23,0.68-0.38c1.36-1.24,2.75-2.46,2.96-4.86v-1.37c-0.2-1.6-0.69-2.91-1.75-3.64c0.33-0.22,1.1,0.04,1.67,0.08
			c0.22,0.01,0.45,0.01,0.68,0c0.41-0.02,0.93-0.06,1.44,0c0.14,0.19,0.11,0.54,0.23,0.76c-0.06,1.68-0.19,3.3-0.15,5.09
			c0.1,0.45,0.13,0.99,0.23,1.44C73.05,68.21,72.9,69.13,72.68,69.97z M73.06,58.81c-0.64-0.12-1.23-0.28-1.9-0.38
			c0.07-0.33,0.8-0.01,0.99-0.23c0.38-0.22,0.29-0.92,0.3-1.52c0.03-0.35,0.11-0.64,0.08-1.06c-0.4-0.95-1.78-0.42-2.89-0.45
			c-0.22,0.72-0.47,1.8-0.3,2.66c0.17,0.49,1.02,0.29,1.52,0.46c-0.14,0.33-0.69,0.06-0.99,0.08c-0.3-0.08-0.71-0.05-0.99-0.15
			c-2.29,0.08-4.28,0-6.53,0.15c0.12-1.25,0.06-2.46-0.08-3.64h3.11c-0.34,0.36-0.91,0.51-1.29,0.83c-0.44,0.24-0.86,0.51-1.14,0.91
			c0.25,0.13,0.54-0.25,0.76-0.38c0.36-0.07,0.48-0.38,0.84-0.46c0.42-0.44,1.1-0.63,1.67-0.91c0.38-0.02,0.7,0.01,0.99,0.08
			c1.28,0.01,2.46,0.13,3.8,0.08c0.61,0.15,1.45,0.07,1.97,0.3c0.11,0.3,0.23,0.58,0.3,0.91C73.3,57.07,73.14,57.9,73.06,58.81z
			 M67.21,55.09C67.32,55.04,67.21,55,67.21,55.09L67.21,55.09z M67.21,55.09c-0.53,0.15-1.02,0.35-1.37,0.68
			C66.33,55.57,66.91,55.46,67.21,55.09z M68.28,55.7C68.39,55.65,68.27,55.6,68.28,55.7L68.28,55.7z M66.53,56.61
			c0.73-0.16,1.18-0.59,1.75-0.91c-0.44,0.02-0.59,0.32-0.99,0.38C67.07,56.29,66.69,56.33,66.53,56.61z M65.85,55.77
			C65.74,55.82,65.85,55.86,65.85,55.77L65.85,55.77z M65.16,56.38C65.27,56.33,65.16,56.29,65.16,56.38L65.16,56.38z M65.09,56.45
			c0.06,0.01,0.07-0.03,0.08-0.08C65.1,56.36,65.09,56.41,65.09,56.45z M65.01,56.53c0.06,0.01,0.07-0.03,0.08-0.08
			C65.02,56.44,65.02,56.48,65.01,56.53z M64.18,57.14c0.35-0.13,0.61-0.35,0.83-0.61C64.66,56.66,64.4,56.88,64.18,57.14z
			 M66.45,58.13c0.53-0.05,0.75-0.42,1.21-0.53c0.28-0.3,0.78-0.38,0.99-0.76c-0.56,0.02-0.77,0.4-1.22,0.53
			C67.16,57.66,66.69,57.78,66.45,58.13z M64.18,57.14C63.86,57.06,64.16,57.37,64.18,57.14L64.18,57.14z M63.64,57.52
			c0.02,0.02,0.12-0.04,0.08-0.08C63.7,57.42,63.61,57.48,63.64,57.52z M66.45,58.13C66.34,58.17,66.46,58.22,66.45,58.13
			L66.45,58.13z M65.31,59.95c-0.22-0.23-0.68-0.23-0.99-0.38c-0.7-0.04-1.22,0.09-1.75,0.23c-0.3,0.15-0.61,0.3-0.91,0.45
			c-0.27,0.17-0.44,0.42-0.76,0.53c-0.21,0.22-0.35,0.51-0.68,0.61c0,0.22-0.17,0.28-0.3,0.38c-0.09,0.12-0.09,0.31-0.23,0.38
			c-0.01,0.12,0.04,0.29-0.08,0.3c0.11,1.51,0.29,2.95,0.68,4.18c0.29,0.62,0.98,0.85,1.44,1.29c0.59,0.3,1.33,0.44,2.13,0.53
			c0.28-0.05,0.55-0.11,0.91-0.08c1.21-0.21,2.1-0.74,2.81-1.44c0.1-0.28,0.25-0.51,0.45-0.68c-0.25-0.67,0.29-1.1,0.46-1.6
			c0-1.34-0.2-2.48-0.61-3.42c-0.26-0.58-0.92-0.75-1.37-1.14c-0.06-0.02-0.15,0-0.15-0.08C66.11,59.89,65.65,59.79,65.31,59.95z
			 M61.9,64.27c-0.11-0.06-0.11-0.24-0.15-0.38C62,63.82,61.87,64.13,61.9,64.27z M61.97,64.58c0.04-0.12,0.08-0.01,0.08,0.08
			C62.01,64.77,61.97,64.66,61.97,64.58z M62.43,62.53c0.01-0.09,0.08-0.04,0.08,0C62.49,62.61,62.43,62.57,62.43,62.53z M64.1,60.4
			c-0.2,0.26,0.04,0.58,0.08,0.84C63.87,61.2,63.6,60.35,64.1,60.4z M64.48,64.35c-0.04-0.04,0.05-0.1,0.08-0.08
			C64.6,64.31,64.5,64.37,64.48,64.35z M65.24,67.23c0.03-0.11,0.07,0.01,0.15,0C65.37,67.33,65.24,67.31,65.24,67.23z M67.44,64.65
			c-0.23-0.06-0.14,0.21-0.38,0.15c0.07-0.16,0.12-0.34,0.23-0.46C67.42,64.37,67.46,64.48,67.44,64.65z M66.3,60.86
			c0.21,0.12,0.44,0.22,0.61,0.38c0.08,0.22,0.24,0.36,0.38,0.53c0.06,0.78,0.18,1.49,0.15,2.35c-0.26,0.1-0.44,0.27-0.68,0.38
			c-0.78-0.01-1.36-0.21-1.9-0.46c-0.17-0.26-0.36-0.5-0.53-0.76v-1.06c0.17-0.18,0.32-0.39,0.46-0.61c0.23-0.13,0.51-0.2,0.45-0.61
			c-0.04-0.06-0.08-0.12-0.08-0.23c0.16,0.04,0.25,0.16,0.38,0.23C65.87,61.03,65.95,60.81,66.3,60.86z"/>
	</g>
</g>
</svg>
